icons/customer-service-line.svg

<svg xmlns="http://www.w3.org/2000/svg" width="24" height="24" fill="none"><g clip-path="url(#a)"><g><path fill="#121212" d="M22 17.002C21.9996 18.3696 21.5321 19.696 20.675 20.7616C19.8179 21.8273 18.6226 22.5683 17.287 22.862L16.649 20.948C17.2332 20.8518 17.7888 20.6271 18.2758 20.2903C18.7627 19.9534 19.1689 19.5128 19.465 19H17C16.4696 19 15.9609 18.7893 15.5858 18.4142C15.2107 18.0391 15 17.5304 15 17V13C15 12.4696 15.2107 11.9609 15.5858 11.5858C15.9609 11.2107 16.4696 11 17 11H19.938C19.694 9.0669 18.7529 7.28927 17.2914 6.00068C15.8299 4.71208 13.9484 4.00108 12 4.00108C10.0516 4.00108 8.17007 4.71208 6.70857 6.00068C5.24708 7.28927 4.30603 9.0669 4.062 11H7C7.53043 11 8.03914 11.2107 8.41421 11.5858C8.78929 11.9609 9 12.4696 9 13V17C9 17.5304 8.78929 18.0391 8.41421 18.4142C8.03914 18.7893 7.53043 19 7 19H4C3.46957 19 2.96086 18.7893 2.58579 18.4142C2.21071 18.0391 2 17.5304 2 17V12C2 6.477 6.477 2 12 2C17.523 2 22 6.477 22 12V17.002ZM20 17V13H17V17H20ZM4 13V17H7V13H4Z"/></g></g><defs><clipPath id="a"><rect width="24" height="24" fill="white"/></clipPath></defs></svg>

<svg width="24" height="24" fill="none" xmlns="http://www.w3.org/2000/svg"><g clip-path="url(#a)"><path d="M22 17.002a6.001 6.001 0 0 1-4.713 5.86l-.638-1.914A4.004 4.004 0 0 0 19.465 19H17a2 2 0 0 1-2-2v-4a2 2 0 0 1 2-2h2.938a8 8 0 0 0-15.876 0H7a2 2 0 0 1 2 2v4a2 2 0 0 1-2 2H4a2 2 0 0 1-2-2v-5C2 6.477 6.477 2 12 2s10 4.477 10 10v5.002ZM20 17v-4h-3v4h3ZM4 13v4h3v-4H4Z" /></g><defs><clipPath id="a"><path fill="#fff" d="M0 0h24v24H0z"/></clipPath></defs></svg>
